src/img/footer-social/ok.svg

<svg width="32" height="32" viewBox="0 0 32 32" fill="none" xmlns="http://www.w3.org/2000/svg">
<rect width="32" height="32" rx="6" fill="white"/>
<path fill-rule="evenodd" clip-rule="evenodd" d="M4 0C1.79086 0 0 1.79086 0 4V28C0 30.2091 1.79086 32 4 32H28C30.2091 32 32 30.2091 32 28V4C32 1.79086 30.2091 0 28 0H4ZM16.0273 2.98441C19.6695 2.9936 22.5937 5.97368 22.5757 9.65743C22.5563 13.2557 19.5844 16.1725 15.948 16.1602C12.3476 16.148 9.39544 13.1635 9.41586 9.55734C9.43731 5.91172 12.3915 2.97351 16.0273 2.98441ZM23.4053 18.7481C22.5999 19.5757 21.6303 20.1735 20.5532 20.5919C19.535 20.9854 18.4194 21.1849 17.3151 21.317L17.4117 21.4225L17.4117 21.4226C17.5169 21.5376 17.5828 21.6096 17.664 21.6922C18.2037 22.2344 18.7442 22.7758 19.2846 23.3173L19.2846 23.3173C20.2456 24.28 21.2065 25.2426 22.1628 26.2096C22.6713 26.724 22.7789 27.3623 22.4981 27.9611C22.1913 28.6164 21.5054 29.0464 20.832 29.0001C20.4058 28.9701 20.0736 28.758 19.7788 28.4615C19.4045 28.0849 19.0279 27.7106 18.6513 27.3363L18.6512 27.3362C17.8893 26.5791 17.1277 25.8222 16.3864 25.0467C16.064 24.709 15.9088 24.772 15.6235 25.0658C14.4855 26.2375 13.3297 27.3912 12.1665 28.5381C11.6439 29.0535 11.0227 29.1458 10.4157 28.852C9.77161 28.5398 9.36242 27.8824 9.39408 27.221C9.41586 26.7744 9.63578 26.4333 9.9425 26.1269C11.1402 24.9305 12.3358 23.7317 13.5312 22.533L14.3851 21.6768C14.4469 21.6152 14.506 21.5507 14.5768 21.4733C14.6186 21.4277 14.6644 21.3777 14.7173 21.3211C12.6989 21.1104 10.879 20.614 9.32157 19.3953C9.28243 19.3646 9.24302 19.3341 9.20357 19.3036C9.04845 19.1835 8.89282 19.0631 8.75169 18.9279C8.07016 18.2729 8.00173 17.5236 8.54131 16.7505C9.00225 16.0894 9.77773 15.9117 10.5828 16.2913C10.7391 16.3645 10.8875 16.4567 11.0298 16.5551C13.933 18.55 17.9217 18.6055 20.8361 16.6457C21.1245 16.4254 21.4332 16.243 21.7914 16.1524C22.4875 15.9737 23.135 16.2287 23.5088 16.8373C23.9367 17.5308 23.9309 18.2089 23.4053 18.7481ZM16.0174 12.797C17.8036 12.7912 19.2262 11.357 19.2198 9.56666C19.2126 7.77636 17.7876 6.35032 16.0007 6.34896C14.1988 6.34726 12.7599 7.79883 12.7738 9.60547C12.7871 11.389 14.2257 12.8045 16.0174 12.797Z" fill="#FF9A23"/>
</svg>

<svg width="32" height="32" fill="none" xmlns="http://www.w3.org/2000/svg"><rect width="32" height="32" rx="6" fill="#fff"/><path fill-rule="evenodd" clip-rule="evenodd" d="M4 0a4 4 0 00-4 4v24a4 4 0 004 4h24a4 4 0 004-4V4a4 4 0 00-4-4H4zm12.027 2.984c3.642.01 6.567 2.99 6.549 6.673-.02 3.599-2.992 6.515-6.628 6.503-3.6-.012-6.553-2.996-6.532-6.603.021-3.645 2.976-6.583 6.611-6.573zm7.378 15.764c-.805.828-1.775 1.425-2.852 1.844-1.018.393-2.134.593-3.238.725l.097.105c.105.116.17.188.252.27l1.62 1.625a872.29 872.29 0 012.879 2.893c.508.514.616 1.152.335 1.751-.307.655-.993 1.085-1.666 1.04-.426-.03-.758-.243-1.053-.54-.375-.376-.751-.75-1.128-1.125a125.328 125.328 0 01-2.265-2.29c-.322-.337-.477-.274-.762.02a226.35 226.35 0 01-3.458 3.472c-.522.515-1.143.608-1.75.314-.644-.312-1.054-.97-1.022-1.631.022-.447.242-.788.549-1.094a3039.45 3039.45 0 003.588-3.594l.854-.856a6.07 6.07 0 00.192-.204l.14-.152c-2.018-.21-3.838-.707-5.395-1.926l-.118-.091a5.267 5.267 0 01-.452-.376c-.682-.655-.75-1.404-.21-2.178.46-.66 1.236-.838 2.04-.459.157.073.305.166.448.264 2.903 1.995 6.892 2.05 9.806.09.289-.22.597-.402.955-.493.697-.178 1.344.077 1.718.685.428.694.422 1.372-.104 1.911zm-7.388-5.951a3.2 3.2 0 003.203-3.23A3.21 3.21 0 0016 6.349a3.214 3.214 0 00-3.226 3.256 3.208 3.208 0 003.243 3.192z" fill="#FF9A23"/></svg>
